!!!COM: Music21
!!!OTL: waltz_Trinity-Cake
!!!OMV: waltz_Trinity-Cake
**kern
*clefG2
*k[f#]
*G:
*M3/4
=1
16dLL
16dJJ
=
8gL
8gJ
8gL
8gJ
8aL
8gJ
=
8f#
[4d
8d]
8r
8d
=
8ccL
8ccJ
8ccL
8ccJ
8ddL
8aJ
=
[4.b
8b]
8r
16bLL
16ccJJ
=
8ddL
8ddJ
8ddL
8ccJ
8bL
8aJ
=
8g
[4e
8e]
8r
16.ccLL
32ccJJk
!!linebreak:original
=
8bL
8aJ
8gL
8f#J
8gL
8aJ
=
[4.g
8g]
8r
16dLL
16dJJ
=
8gL
8gJ
8gL
8gJ
8aL
8gJ
=
8f#
[4d
8d]
8r
16dLL
16dJJ
=
8ccL
8ccJ
8ccL
8ccJ
8ddL
8aJ
=
[4.b
8b]
8r
16bLL
16ccJJ
!!linebreak:original
=
8ddL
8ddJ
8ddL
8ccJ
8bL
8aJ
=
8g
[4e
8e]
8r
16ccLL
16ccJJ
=
8bL
8aJ
8gL
8f#J
8gL
8aJ
=
[4.g
8g]
8r
8ryy
=||
*M3/4
16dLL
16dJJ
=
8gL
8gJ
8gL
8gJ
8aL
8gJ
!!linebreak:original
=
8f#
[4d
8d]
8r
8d
=
8ccL
8ccJ
8ccL
8ccJ
8ddL
8aJ
=
[4.b
8b]
8r
16bLL
16ccJJ
=
8ddL
8ddJ
8ddL
8ccJ
8bL
8aJ
=
8g
[4e
8e]
8r
16.ccLL
32ccJJk
=
8bL
8aJ
8gL
8f#J
8gL
8aJ
!!linebreak:original
=
[4.g
8g]
8r
16dLL
16dJJ
=
8gL
8gJ
8gL
8gJ
8aL
8gJ
=
8f#
[4d
8d]
8r
16dLL
16dJJ
=
8ccL
8ccJ
8ccL
8ccJ
8ddL
8aJ
=
[4.b
8b]
8r
16bLL
16ccJJ
=
8ddL
8ddJ
8ddL
8ccJ
8bL
8aJ
!!linebreak:original
=
8g
[4e
8e]
8r
16ccLL
16ccJJ
=
8bL
8aJ
8gL
8f#J
8gL
8aJ
=
[4.g
8g]
8r
8ryy
=||
*-
